dist/svgs/carbon-icons/svg/console.svg

<svg xmlns="http://www.w3.org/2000/svg" fill-rule="evenodd" viewBox="0 0 24 24"><path d="M0 0v24h24V0H0zm1 23V7h8v16H1zm22 0H10v-8h13v8zm0-9H10V7h13v7zM1 6V1h22v5H1z"/></svg>

<svg width="24px" height="24px" viewBox="0 0 24 24" version="1.1" xmlns="http://www.w3.org/2000/svg" xmlns:xlink="http://www.w3.org/1999/xlink" fill-rule="evenodd">
	<path d="M0,0 L0,6 L0,7 L0,24 L9,24 L10,24 L24,24 L24,15 L24,14 L24,7 L24,6 L24,0 L0,0 L0,0 Z M1,23 L1,7 L9,7 L9,23 L1,23 L1,23 Z M23,23 L10,23 L10,15 L23,15 L23,23 L23,23 Z M23,14 L10,14 L10,7 L23,7 L23,14 L23,14 Z M1,6 L1,1 L23,1 L23,6 L1,6 L1,6 Z"></path>
</svg>
